svg/black/nxs.svg

<svg xmlns="http://www.w3.org/2000/svg" width="32" height="32" viewBox="0 0 32 32">
  <path fill-rule="evenodd" d="M10.6183059,31.0723885 C13.9411057,30.5106724 17.8036018,28.9722475 21.5511169,26.5385828 C26.9832684,23.0109023 30.7952753,18.4974313 31.949451,14.7188044 C31.9829376,15.1414589 32,15.5687369 32,16 C32,24.836556 24.836556,32 16,32 C14.1118598,32 12.3001079,31.6729424 10.6183059,31.0723885 Z M2.00452533,23.760164 C0.72739227,21.4617685 0,18.8158301 0,16 C0,7.163444 7.163444,0 16,0 C22.1194724,0 27.4365523,3.43545106 30.1277996,8.4829133 C26.5535515,6.34019537 19.2260882,7.77829809 12.2922533,12.2811831 C10.793332,13.254594 9.41776878,14.3030632 8.18736522,15.3904405 C7.85529199,15.1450637 7.44458672,15 7,15 C5.8954305,15 5,15.8954305 5,17 C5,17.4501943 5.14874616,17.8656471 5.39977311,18.1998929 C3.77614821,20.0861003 2.61035485,21.995974 2.00452533,23.760164 Z M5.75427649,18.5647613 C6.09601503,18.8371831 6.52899355,19 7,19 C8.1045695,19 9,18.1045695 9,17 C9,16.5713599 8.86515605,16.1742142 8.63557402,15.8486689 C9.17625749,15.4258215 9.74987145,15.015859 10.3532606,14.6240135 C15.7950662,11.0900636 21.5980112,10.367938 23.3145012,13.0111007 C25.0309911,15.6542634 22.0110261,20.6618025 16.5692205,24.1957524 C11.1274149,27.7297022 5.32446988,28.4518279 3.60797995,25.8086652 C2.47173039,24.0589943 3.41095985,21.2732714 5.75427649,18.5647613 Z"/>
</svg>

<svg xmlns="http://www.w3.org/2000/svg" width="32" height="32"><path fill-rule="evenodd" d="M10.618 31.072c3.323-.561 7.186-2.1 10.933-4.533 5.432-3.528 9.244-8.042 10.398-11.82.034.422.051.85.051 1.281 0 8.837-7.163 16-16 16-1.888 0-3.7-.327-5.382-.928zM2.005 23.76A15.928 15.928 0 0 1 0 16C0 7.163 7.163 0 16 0c6.12 0 11.437 3.435 14.128 8.483-3.574-2.143-10.902-.705-17.836 3.798a34.973 34.973 0 0 0-4.105 3.11A2 2 0 0 0 5.4 18.2c-1.623 1.885-2.789 3.795-3.394 5.56zm3.75-5.195a2 2 0 0 0 2.881-2.716c.54-.423 1.114-.833 1.717-1.225 5.442-3.534 11.245-4.256 12.962-1.613 1.716 2.643-1.304 7.65-6.746 11.185-5.442 3.534-11.245 4.256-12.961 1.613-1.136-1.75-.197-4.536 2.146-7.244z"/></svg>
